X:1
T:Oh, for a Heart Whiter than Snow
T:Oh, for a Heart Whiter than Snow
T:William J. Kirkpatrick, 1902
T:Eliza E. Hewitt, 1902
T:PUBLIC DOMAIN
T:PUBLIC DOMAIN
C:William J. Kirkpatrick, 1902
Z:Eliza E. Hewitt, 1902
Z:PUBLIC DOMAIN
%%score ( 1 2 ) ( 3 4 )
L:1/8
Q:1/4=100
M:4/4
K:Eb
V:1 treble nm="Treble"
V:2 treble 
V:3 bass nm="Bass"
V:4 bass 
V:1
"^Moderato con express." [EG]4 [EG]2 [FA]2 | [GB]4 [GB]2 [GB]2 |!<(! (([Ac]2 [ce]2)) [Bd]2 [Ac]2 | %3
w: 1.~Oh, for a|heart that is|whit- _ er than|
w: 2.~Oh, for a|heart that is|whit- _ er than|
w: 3.~Oh, for a|heart that is|whit- _ er than|
w: 4.~Oh, for a|heart that is|whit- _ er than|
 [GB]6!<)! z2 |!f! [GB]4 [FA]2 [EG]2 | [FA]4 [EG]2 [DF]2 |!>(! [EG]4 [B,F]2 [CE]2 | %7
w: snow,|Kept, ev- er|kept ’neath the|life- giv- ing|
w: snow!|Calm in the|peace that He|loves to be-|
w: snow!|With the pure|flame of the|Spir- it a-|
w: snow!|Then in His|grace and His|know- ledge to|
!mp! [DF]6!>)! z2 | [EG]4 [EG]2 [FA]2 | [GB]4 [GB]2 [GB]2 |!<(! (([Ac]2 [ce]2)) [Bd]2 [Ac]2 | %11
w: flow,|Cleansed from all|pas- sion, self-|seek- _ ing and|
w: stow;|Dai- ly re-|freshed by the|heav- _ en- ly|
w: glow;|Filled with the|love that is|true * and sin-|
w: grow,|Grow- ing like|Him who my|pat- _ tern shall|
!f! [GB]6!<)! z2 | [Af]4 [Ge]2 [Fd]2 |!>(! [Ge]4 [Ec]2 [EA]2 |!mp! [EG]4!>)! [DG]2 [DF]2 | E6 z2 || %16
w: pride,|Washed in the|foun- tain of|Cal- va- ry’s|tide.|
w: dews,|Read- y for|ser- vice when-|e’er He shall|choose.|
w: cere,|Love that is|a- ble to|ban- ish all|fear.|
w: be,|Till in His|beau- ty my|King I shall|see.|
"^Refrain" [DF]4 [DF]2 [EG]2 | [FA]8 |!<(! [EG]4 [EG]2 [DA]2 | [EB]8 | %20
w: Oh, for a|heart|whit- er than|snow!|
w: ||||
w: ||||
w: ||||
!mf! (c2!<)! e2) [Ed]2 [Ec]2 | [EB]4 [EG]2 [EB]2 |!>(! [EB]4 [DA]2 [EG]2 |!mp! [DF]6!>)! z2 | %24
w: Sav- _ ior di-|vine, to whom|else shall I|go?|
w: ||||
w: ||||
w: ||||
 [EG]4 [EG]2 [DA]2 | [EB]8 |!<(! (c2 e2) [Ed]2 [Ec]2 | [EB]6 z2 |!f! [Af]4!<)! [Ge]2 [Fd]2 | %29
w: Thou who didst|die,|lov- _ ing me|so,|Give me a|
w: |||||
w: |||||
w: |||||
 [Ge]4!>(! [Ec]2 [EA]2 | [EG]4!>)!!mp! [DG]2 [DF]2 | E6 z2 |] %32
w: heart that is|whit- er than|snow!|
w: |||
w: |||
w: |||
V:2
 x8 | x8 | x8 | x8 | x8 | x8 | x8 | x8 | x8 | x8 | x8 | x8 | x8 | x8 | x8 | E6 z2 || x8 | x8 | x8 | %19
 x8 | E4 z4 | x8 | x8 | x8 | x8 | x8 | E4 z4 | x8 | x8 | x8 | x8 | E6 z2 |] %32
V:3
 [E,B,]4 [E,B,]2 [E,B,]2 | [E,E]4 [E,E]2 [E,E]2 |!<(! [A,E]4 [A,E]2 [A,E]2 | [E,E]6!<)! z2 | %4
!f! [E,B,]4 [D,B,]2 [E,B,]2 | [B,,B,]4 [B,,B,]2 [B,,B,]2 |!>(! [E,B,]4 [D,B,]2 [C,=A,]2 | %7
!mp! [B,,B,]6!>)! z2 | [E,B,]4 [E,B,]2 [E,B,]2 | [E,E]4 [E,E]2 [E,E]2 |!<(! [A,E]4 [A,E]2 [A,E]2 | %11
!f! [E,E]6!<)! z2 | [D,B,]4 [B,,B,]2 [B,,B,]2 |!>(! [E,B,]4 [A,,A,]2 [A,,C]2 | %14
!mp! [B,,B,]4!>)! [B,,B,]2 [B,,A,]2 | [E,G,]6 z2 || B,4 [F,B,]2 [E,B,]2 | B,8 | %18
!<(! B,4 [E,B,]2 [F,B,]2 | B,8 |!mf! (A,2!<)! C2) [A,B,]2 A,2 | [E,G,]4 [E,B,]2 [G,B,]2 | %22
!>(! [G,B,]4 [F,B,]2 [E,B,]2 |!mp! [B,,B,]6!>)! z2 | [E,B,]4 [E,B,]2 [F,B,]2 | B,8 | %26
!<(! (A,2 C2) [A,B,]2 A,2 | [E,G,]6 z2 |!f! [D,B,]4!<)! [B,,B,]2 [B,,B,]2 | %29
 [E,B,]4!>(! [A,,A,]2 [A,,C]2 | [B,,B,]4!>)!!mp! [B,,B,]2 [B,,A,]2 | [E,G,]6 z2 |] %32
V:4
 x8 | x8 | x8 | x8 | x8 | x8 | x8 | x8 | x8 | x8 | x8 | x8 | x8 | x8 | x8 | x8 || (B,2 A,2) z4 | %17
 (D,2 B,,2 C,2 D,2) | (E,2 B,,2) z4 | (G,2 E,2 F,2 G,2) | A,4 z2 A,2 | x8 | x8 | x8 | x8 | %25
 (G,2 E,2 F,2 G,2) | A,4 z2 A,2 | x8 | x8 | x8 | x8 | x8 |] %32

